dist/images/nav-watch.svg

<svg width="24" height="24" viewBox="0 0 24 24" fill="none" xmlns="http://www.w3.org/2000/svg">
<path d="M11 10V14L15 12L11 10Z" fill="#D5DFF2"/>
<path d="M3.51562 21H20.4844C22.4228 21 24 19.4471 24 17.5385V6.46154C24 4.55294 22.4228 3 20.4844 3H3.51562C1.5772 3 0 4.55294 0 6.46154V17.5385C0 19.4471 1.5772 21 3.51562 21ZM9.1875 8.53846C9.18756 8.41483 9.22121 8.29346 9.28495 8.18695C9.3487 8.08043 9.44022 7.99265 9.55003 7.93269C9.77114 7.81098 10.0465 7.81708 10.2635 7.95162L15.8885 11.4132C15.9895 11.4754 16.0729 11.5619 16.1306 11.6646C16.1884 11.7672 16.2187 11.8826 16.2188 12C16.2187 12.1174 16.1884 12.2328 16.1306 12.3354C16.0729 12.4381 15.9895 12.5246 15.8885 12.5868L10.2635 16.0484C10.1517 16.1174 10.0225 16.1539 9.89062 16.1538C9.7732 16.1538 9.65578 16.1248 9.55003 16.0673C9.44022 16.0074 9.3487 15.9196 9.28495 15.8131C9.22121 15.7065 9.18756 15.5852 9.1875 15.4615V8.53846Z" fill="#D5DFF2"/>
</svg>

<svg width="24" height="24" fill="none" xmlns="http://www.w3.org/2000/svg"><path d="M11 10v4l4-2-4-2z" fill="#D5DFF2"/><path d="M3.516 21h16.968C22.423 21 24 19.447 24 17.538V6.462C24 4.552 22.423 3 20.484 3H3.516C1.577 3 0 4.553 0 6.462v11.076C0 19.448 1.577 21 3.516 21zM9.187 8.538a.685.685 0 01.363-.605.71.71 0 01.713.019l5.626 3.461a.696.696 0 01.33.587.684.684 0 01-.33.587l-5.625 3.461a.709.709 0 01-.979-.235.685.685 0 01-.098-.352V8.538z" fill="#D5DFF2"/></svg>
